X:1
T:Title
L:1/8
M:4/4
K:Ab
V:1 treble nm="Grand Piano"
V:1
 z4 z[Q:1/4=100] C2 C | F2 =E2- E D2 B, | D2 C2- C F2 G | A3 B- B A2 F | G4- G c2 B/=A/ | %5
 B2 B2- B d2 B | d2 c2- c B2 A | G3 C- C G2 =E | F4- F c2 d | d2 c2- c B2 =A | c2 B2- B B2 c | %11
 c3 B- B A2 F | G4- G G2 A | B2 B2- B G2 E | A2 F2- F E2 D | C3 =E- E F2 G | F4- F c2 d | %17
 e3 e- edcB | d2 c2- c B2 c | d3 c- c B2 =A | B4- B A2 A | A2 G2- G B2 B | B2 =A2- A d2 c | %23
 B2 A2- A G2 F | =E4- E C2 D | C2 A2- A G2 F | F6 z2 |] %27

